svgs/sharp-light/h3.svg

<svg xmlns="http://www.w3.org/2000/svg" viewBox="0 0 640 512"><!--! Font Awesome Pro 6.6.0 by @fontawesome - https://fontawesome.com License - https://fontawesome.com/license (Commercial License) Copyright 2024 Fonticons, Inc. --><path d="M32 80l0-16L0 64 0 80 0 256 0 432l0 16 32 0 0-16 0-160 256 0 0 160 0 16 32 0 0-16 0-176 0-176 0-16-32 0 0 16 0 160L32 240 32 80zM600 64L400 64l-16 0 0 32 16 0 160 0L421 228.4l-5 4.7 0 22.9 16 0 96 0c44.2 0 80 35.8 80 80s-35.8 80-80 80l-71.4 0c-19.9 0-36.8-14.6-39.6-34.3l-1.1-7.9-31.7 4.5 1.1 7.9c5.1 35.5 35.4 61.8 71.3 61.8l71.4 0c56.4 0 103.1-41.7 110.9-96l1.1 0 0-16c0-61.9-50.1-112-112-112l-56 0L611 91.6l5-4.7L616 64l-16 0z"/></svg>

<svg xmlns="http://www.w3.org/2000/svg" viewBox="0 0 640 512"><!--! Font Awesome Pro 6.4.0 by @fontawesome - https://fontawesome.com License - https://fontawesome.com/license (Commercial License) Copyright 2023 Fonticons, Inc. --><path d="M32 80V64H0V80 256 432v16H32V432 272H288V432v16h32V432 256 80 64H288V80 240H32V80zM600 64H400 384V96h16H560L421 228.4l-5 4.7V256h16 96c44.2 0 80 35.8 80 80s-35.8 80-80 80H456.6c-19.9 0-36.8-14.6-39.6-34.3l-1.1-7.9-31.7 4.5 1.1 7.9c5.1 35.5 35.4 61.8 71.3 61.8H528c61.9 0 112-50.1 112-112s-50.1-112-112-112H472L611 91.6l5-4.7V64H600z"/></svg>
